!!!COM: Claude Goudimel
!!!OMD: Psalm 119: Bienheureuse est la personne
**kern	**kern	**kern	**kern
*part4	*part3	*part2	*part1
*staff4	*staff3	*staff2	*staff1
*I"bassus	*I"tenor	*I"contra	*I"superius
*clefF4	*clefC4	*clefC3	*clefC1
*k[b-]	*k[b-]	*k[b-]	*k[b-]
!!LO:TX:omd:t=
*M2/2	*M2/2	*M2/2	*M2/2
*met(c|)	*met(c|)	*met(c|)	*met(c|)
=1	=1	=1	=1
1F	1F	1c	1f
=2	=2	=2	=2
2C	2G	2c	2e
2F	2A	2c	2f
=3	=3	=3	=3
1BB-	1F	1B-	1d
=4	=4	=4	=4
1FF	1A	1c	1f
=5	=5	=5	=5
2FF	2c	2A	2f
2AA	2c	2A	2e
=6	=6	=6	=6
2BB-	2B-	2F	2d
2FF	2A	2c	2f
=7	=7	=7	=7
1C	1G	1c	1e
=8	=8	=8	=8
1r	1r	1r	1r
=9	=9	=9	=9
1FF	1A	1c	1f
=10	=10	=10	=10
2BB-	2F	2B-	2d
2C	2E	2G	2c
=11	=11	=11	=11
1GG	1D	1G	1Bn
=12	=12	=12	=12
1C	1C	1G	1c
=13	=13	=13	=13
2BB-	2F	2B-	2d
2GG	2G	2B-	2d
=14	=14	=14	=14
2D	2A	2A	2f
2AA	2c	2A	2e
=15	=15	=15	=15
1BB-	1B-	1F	1d
=16	=16	=16	=16
1FF	1A	1F	1c
=17	=17	=17	=17
1r	1r	1r	1r
=18	=18	=18	=18
1F	1c	1A	1f
=19	=19	=19	=19
2BB-	2B-	2d	2f
2F	2A	2c	2f
=20	=20	=20	=20
1C	1G	1c	1e
=21	=21	=21	=21
1FF	1A	1c	1f
=22	=22	=22	=22
2C	2G	2c	2e
2D	2F	2A	2d
=23	=23	=23	=23
2BB-	2F	2B-	2d
2C	2E	2G	2c
=24	=24	=24	=24
1FF	1F	1A	1c
=25	=25	=25	=25
1r	1r	1r	1r
=26	=26	=26	=26
1F	1c	1A	1f
=27	=27	=27	=27
2F	2A	2c	2f
2G	2B-	2B-	2d
=28	=28	=28	=28
1F	1c	1A	1f
=29	=29	=29	=29
1BB-	1B-	1d	1f
=30	=30	=30	=30
2F	2A	2c	2f
2C	2G	2c	2e
=31	=31	=31	=31
2D	2F	2A	2d
2AA	2E	2A	2c
=32	=32	=32	=32
1BB-	1D	1F	1B-
=33	=33	=33	=33
1FF	1C	1F	1A
=34	=34	=34	=34
1r	1r	1r	1r
=35	=35	=35	=35
1FF	1F	1A	1c
=36	=36	=36	=36
2C	2E	2G	2c
2D	2F	2F	2A
=37	=37	=37	=37
1C	1G	1E	1c
=38	=38	=38	=38
1FF	1A	1F	1c
=39	=39	=39	=39
2BB-	2B-	2F	2d
2FF	2A	2F	2c
=40	=40	=40	=40
2C	2G	2E	2c
2D	2F	2F	2A
=41	=41	=41	=41
1C	1E	1G	1c
=42	=42	=42	=42
1r	1r	1r	1r
=43	=43	=43	=43
1F	1F	1A	1c
=44	=44	=44	=44
2C	2G	2c	2e
2F	2A	2c	2f
=45	=45	=45	=45
1BB-	1B-	1d	1f
=46	=46	=46	=46
1FF	1A	1c	1f
=47	=47	=47	=47
2C	2G	2c	2e
2D	2F	2A	2d
=48	=48	=48	=48
2AA	2E	2A	2c
2D	2F	2A	[2f
=49	=49	=49	=49
1C	1G	1c	2f]
.	.	.	2e
=50	=50	=50	=50
1FF;	1F;	1A;	1f;
==	==	==	==
*-	*-	*-	*-
!!!software: music21 v.9.7.1
!!!software: music21 v.9.1.0
!!!RDF**kern: > = above
!!!RDF**kern: < = below
